Newaita-dark/apps/32/com.github.philip-scott.wallpaperize.svg

<svg height="32" viewBox="0 0 32 32" width="32" xmlns="http://www.w3.org/2000/svg" xmlns:xlink="http://www.w3.org/1999/xlink"><linearGradient id="a" gradientUnits="userSpaceOnUse" x1="15.87652" x2="15.87652" y1="28.033934" y2="29.35697800003"><stop offset="0" stop-opacity=".27451"/><stop offset="1" stop-opacity="0"/></linearGradient><linearGradient id="b"><stop offset="0" stop-opacity=".313726"/><stop offset=".222222" stop-opacity=".27451"/><stop offset="1" stop-opacity="0"/></linearGradient><radialGradient id="c" cx="450.908936" cy="189.579361" gradientTransform="matrix(.00000017 -.0781325 -.140638 -.0000001 53.453691 63.595331)" gradientUnits="userSpaceOnUse" r="21.166656" xlink:href="#b"/><radialGradient id="d" cx="450.908936" cy="189.579361" gradientTransform="matrix(-.00000017 .0781325 .140638 .0000001 -21.700661 -7.527481)" gradientUnits="userSpaceOnUse" r="21.166656" xlink:href="#b"/><radialGradient id="e" cx="450.908936" cy="189.579361" gradientTransform="matrix(-.00000017 -.0781325 .140638 -.0000001 -21.700661 63.595331)" gradientUnits="userSpaceOnUse" r="21.166656" xlink:href="#b"/><radialGradient id="f" cx="450.908936" cy="189.579361" gradientTransform="matrix(.00000017 .0781325 -.140638 .0000001 53.453689 -7.527481)" gradientUnits="userSpaceOnUse" r="21.166656" xlink:href="#b"/><linearGradient id="g" gradientTransform="matrix(.0753497 0 0 .217412 -5.854013 33.641348)" gradientUnits="userSpaceOnUse" x1="306.916656" x2="305.954559" y1="-25.791676" y2="-135.329163"><stop offset="0" stop-color="#f48fb1"/><stop offset="1" stop-color="#9fa8da"/></linearGradient><linearGradient id="h" gradientUnits="userSpaceOnUse" x1="16.061239" x2="16.061239" y1="28.24440992399" y2="6.56300896501"><stop offset="0" stop-color="#424242"/><stop offset="1" stop-color="#757575"/></linearGradient><linearGradient id="i" gradientUnits="userSpaceOnUse" x1="21.16868305657" x2="19.84564108128" y1="12.15741138765" y2="8.1882834067"><stop offset="0" stop-color="#ffe0b2"/><stop offset="1" stop-color="#fff3e0"/></linearGradient><linearGradient id="j" gradientUnits="userSpaceOnUse" x1="16.061238" x2="16.061238" y1="28.24441092399" y2="6.56300996501"><stop offset="0" stop-color="#9fa8da"/><stop offset="1" stop-color="#c5cae9"/></linearGradient><linearGradient id="k" gradientUnits="userSpaceOnUse" x1="15.87648" x2="15.87648" y1="28.03386419623" y2="4.21914343548"><stop offset="0" stop-color="#bdbdbd"/><stop offset="1" stop-color="#e0e0e0"/></linearGradient><path d="m4.628906 28.035156h22.492188v1.320313h-22.492188zm0 0" fill="url(#a)"/><path d="m27.121094 28.035156h2.648437v-1.324218h-2.648437zm0 0" fill="url(#c)"/><path d="m4.628906 28.035156h-2.644531v1.320313h2.644531zm0 0" fill="url(#d)"/><path d="m4.628906 28.035156h-2.644531v-1.324218h2.644531zm0 0" fill="url(#e)"/><path d="m27.121094 28.035156h2.648437v1.320313h-2.648437zm0 0" fill="url(#f)"/><path d="m3.308594 4.21875h25.136718c.730469 0 1.324219.59375 1.324219 1.324219v21.167969c0 .730468-.59375 1.324218-1.324219 1.324218h-25.136718c-.730469 0-1.324219-.59375-1.324219-1.324218v-21.167969c0-.730469.59375-1.324219 1.324219-1.324219zm0 0" fill="url(#g)"/><path d="m9.378906 12.40625c-.214844.003906-.421875.089844-.574218.242188l-6.820313 6.820312v7.242188c0 .734374.589844 1.324218 1.324219 1.324218h25.136718c.734376 0 1.324219-.589844 1.324219-1.324218v-7.308594l-4.820312-4.285156c-.34375-.304688-.867188-.273438-1.171875.074218l-5.253906 6.003906-8.546876-8.546874c-.160156-.15625-.375-.246094-.597656-.242188zm0 0" fill="url(#h)"/><path d="m3.308594 28.046875c-.734375 0-1.324219-.589844-1.324219-1.324219v-.34375c0 .734375.589844 1.324219 1.324219 1.324219h25.136718c.734376 0 1.324219-.589844 1.324219-1.324219v.34375c0 .734375-.589843 1.324219-1.324219 1.324219zm0 0" fill-opacity=".235294"/><path d="m3.308594 4.296875c-.734375 0-1.324219.589844-1.324219 1.320313v.160156c0-.734375.589844-1.324219 1.324219-1.324219h25.136718c.734376 0 1.324219.589844 1.324219 1.324219v-.160156c0-.730469-.589843-1.320313-1.324219-1.320313zm0 0" fill="#fff" fill-opacity=".392157"/><path d="m22.078125 7.988281c-.800781 0-1.5.417969-1.894531 1.046875.265625-.121094.558594-.183594.867187-.183594 1.164063 0 2.101563.9375 2.101563 2.101563 0 .558594-.214844 1.066406-.570313 1.441406.992188-.226562 1.726563-1.109375 1.726563-2.175781 0-1.234375-.992188-2.230469-2.230469-2.230469zm0 0" fill="url(#i)"/><path d="m3.308594 4.21875c-.734375 0-1.324219.589844-1.324219 1.324219v8.195312c6.414063-1.847656 13.867187-2.902343 21.832031-2.902343 2.019532 0 4.007813.066406 5.953125.199218v-5.492187c0-.734375-.589843-1.324219-1.324219-1.324219zm0 0" fill="#fff" fill-opacity=".117647"/><path d="m9.378906 12.40625c-.214844.003906-.421875.089844-.574218.242188l-3.253907 3.253906.921875 1.085937c.414063.414063 1.628906.4375 2.917969-.417969.824219-.820312 1.820313-.746093 2.5 0 .972656.898438 1.851563.832032 2.839844.832032l-4.753907-4.753906c-.160156-.15625-.375-.246094-.597656-.242188zm15.007813 2.503906c-.222657 0-.449219.097656-.609375.28125l-1.9375 2.210938h.058594c.144531.320312.207031 1.460937.832031.835937 1.070312-1.070312 1.253906-.625 1.667969-.210937.628906.628906 1.042968 1.253906 1.667968 1.042968 1.042969-.414062 1.226563-1.445312.761719-2.28125l-1.878906-1.671874c-.160157-.144532-.363281-.210938-.5625-.207032zm0 0" fill="url(#j)"/><path d="m3.308594 4.21875c-.734375 0-1.324219.589844-1.324219 1.324219v21.167969c0 .734374.589844 1.324218 1.324219 1.324218h25.136718c.734376 0 1.324219-.589844 1.324219-1.324218v-21.167969c0-.734375-.589843-1.324219-1.324219-1.324219zm.496094 1.324219h24.144531c.273437 0 .496093.21875.496093.496093v20.175782c0 .273437-.222656.496094-.496093.496094h-24.144531c-.277344 0-.496094-.222657-.496094-.496094v-20.175782c0-.277343.21875-.496093.496094-.496093zm0 0" fill="url(#k)"/><path d="m3.308594 4.21875c-.734375 0-1.324219.589844-1.324219 1.324219v.253906c0-.734375.589844-1.324219 1.324219-1.324219h25.136718c.734376 0 1.324219.589844 1.324219 1.324219v-.253906c0-.734375-.589843-1.324219-1.324219-1.324219zm0 21.996094v.253906c0 .273438.21875.496094.496094.496094h24.144531c.273437 0 .496093-.222656.496093-.496094v-.253906c0 .273437-.222656.496094-.496093.496094h-24.144531c-.277344 0-.496094-.222657-.496094-.496094zm0 0" fill="#fff" fill-opacity=".588235"/><path d="m3.804688 5.550781c-.277344 0-.496094.222657-.496094.496094v.238281c0-.273437.21875-.496094.496094-.496094h24.144531c.273437 0 .496093.222657.496093.496094v-.238281c0-.273437-.222656-.496094-.496093-.496094zm-1.820313 20.921875v.238282c0 .734374.589844 1.324218 1.324219 1.324218h25.136718c.734376 0 1.324219-.589844 1.324219-1.324218v-.238282c0 .730469-.589843 1.320313-1.324219 1.320313h-25.136718c-.734375 0-1.324219-.589844-1.324219-1.320313zm0 0" fill-opacity=".235294"/><path d="m200.059646 255.093763c-44.405211 0-80.071098 35.665888-80.071098 80.071098v1279.956578c0 44.405211 35.665887 80.071098 80.071098 80.071098h1519.933674c44.40521 0 80.071098-35.665887 80.071098-80.071098v-1279.956578c0-44.40521-35.665888-80.071098-80.071098-80.071098zm29.997137 80.071098h1459.9394c16.533855 0 29.997137 13.227084 29.997137 29.997137v1219.962304c0 16.533855-13.463282 29.997137-29.997137 29.997137h-1459.9394c-16.770053 0-29.997137-13.463282-29.997137-29.997137v-1219.962304c0-16.770053 13.227084-29.997137 29.997137-29.997137zm0 0" fill="none" stroke="#212121" stroke-linecap="round" stroke-width="11.338583" transform="scale(.016538)"/><path d="m5.292969 6.863281c-.367188 0-.664063.296875-.664063.664063v2.644531c0 .183594.148438.332031.332032.332031.183593 0 .332031-.148437.332031-.332031v-2.3125c0-.183594.148437-.332031.328125-.332031h1.65625c.183594 0 .332031-.148438.332031-.332032 0-.183593-.148437-.332031-.332031-.332031zm3.308593 0c-.183593 0-.332031.148438-.332031.332031 0 .183594.148438.332032.332031.332032h1.320313c.183594 0 .332031-.148438.332031-.332032 0-.183593-.148437-.332031-.332031-.332031zm2.644532 0c-.183594 0-.332032.148438-.332032.332031 0 .183594.148438.332032.332032.332032h1.324218c.183594 0 .328126-.148438.328126-.332032 0-.183593-.144532-.332031-.328126-.332031zm2.644531 0c-.183594 0-.328125.148438-.328125.332031 0 .183594.144531.332032.328125.332032h1.324219c.183594 0 .332031-.148438.332031-.332032 0-.183593-.148437-.332031-.332031-.332031zm2.648437 0c-.183593 0-.332031.148438-.332031.332031 0 .183594.148438.332032.332031.332032h1.320313c.183594 0 .332031-.148438.332031-.332032 0-.183593-.148437-.332031-.332031-.332031zm2.644532 0c-.183594 0-.332032.148438-.332032.332031 0 .183594.148438.332032.332032.332032h1.324218c.183594 0 .332032-.148438.332032-.332032 0-.183593-.148438-.332031-.332032-.332031zm2.648437 0c-.183593 0-.332031.148438-.332031.332031 0 .183594.148438.332032.332031.332032h1.320313c.183594 0 .332031-.148438.332031-.332032 0-.183593-.148437-.332031-.332031-.332031zm2.644531 0c-.183593 0-.332031.148438-.332031.332031 0 .183594.148438.332032.332031.332032h1.652344c.183594 0 .332032.148437.332032.332031v2.3125c0 .183594.148437.332031.332031.332031.183593 0 .328125-.148437.328125-.332031v-2.644531c0-.367188-.292969-.664063-.660156-.664063zm-19.515624 4.300781c-.183594 0-.332032.148438-.332032.332032v1.324218c0 .183594.148438.328126.332032.328126.183593 0 .332031-.144532.332031-.328126v-1.324218c0-.183594-.148438-.332032-.332031-.332032zm21.832031 0c-.183594 0-.332031.148438-.332031.332032v1.324218c0 .183594.148437.328126.332031.328126.183593 0 .328125-.144532.328125-.328126v-1.324218c0-.183594-.144532-.332032-.328125-.332032zm-21.832031 2.648438c-.183594 0-.332032.144531-.332032.328125v1.324219c0 .183594.148438.332031.332032.332031.183593 0 .332031-.148437.332031-.332031v-1.324219c0-.183594-.148438-.328125-.332031-.328125zm21.832031 0c-.183594 0-.332031.144531-.332031.328125v1.324219c0 .183594.148437.332031.332031.332031.183593 0 .328125-.148437.328125-.332031v-1.324219c0-.183594-.144532-.328125-.328125-.328125zm-21.832031 2.644531c-.183594 0-.332032.148438-.332032.332031v1.320313c0 .183594.148438.332031.332032.332031.183593 0 .332031-.148437.332031-.332031v-1.320313c0-.183593-.148438-.332031-.332031-.332031zm21.832031 0c-.183594 0-.332031.148438-.332031.332031v1.320313c0 .183594.148437.332031.332031.332031.183593 0 .328125-.148437.328125-.332031v-1.320313c0-.183593-.144532-.332031-.328125-.332031zm-21.832031 2.644531c-.183594 0-.332032.148438-.332032.332032v1.324218c0 .183594.148438.332032.332032.332032.183593 0 .332031-.148438.332031-.332032v-1.324218c0-.183594-.148438-.332032-.332031-.332032zm21.832031 0c-.183594 0-.332031.148438-.332031.332032v1.324218c0 .183594.148437.332032.332031.332032.183593 0 .328125-.148438.328125-.332032v-1.324218c0-.183594-.144532-.332032-.328125-.332032zm-21.832031 2.648438c-.183594 0-.332032.148438-.332032.332031v2.644531c0 .367188.296875.660157.664063.660157h1.984375c.183594 0 .332031-.144531.332031-.328125s-.148437-.332032-.332031-.332032h-1.65625c-.179688 0-.328125-.148437-.328125-.332031v-2.3125c0-.183593-.148438-.332031-.332031-.332031zm21.832031 0c-.183594 0-.332031.148438-.332031.332031v2.3125c0 .183594-.148438.332031-.332032.332031h-1.652344c-.183593 0-.332031.148438-.332031.332032s.148438.328125.332031.328125h1.984376c.367187 0 .660156-.292969.660156-.660157v-2.644531c0-.183593-.144532-.332031-.328125-.332031zm-18.191407 2.976562c-.183593 0-.332031.148438-.332031.332032s.148438.328125.332031.328125h1.320313c.183594 0 .332031-.144531.332031-.328125s-.148437-.332032-.332031-.332032zm2.644532 0c-.183594 0-.332032.148438-.332032.332032s.148438.328125.332032.328125h1.324218c.183594 0 .328126-.144531.328126-.328125s-.144532-.332032-.328126-.332032h-.003906zm2.644531 0c-.183594 0-.328125.148438-.328125.332032s.144531.328125.328125.328125h1.324219c.183594 0 .332031-.144531.332031-.328125s-.148437-.332032-.332031-.332032h-1.320313zm2.648437 0c-.183593 0-.332031.148438-.332031.332032s.148438.328125.332031.328125h1.320313c.183594 0 .332031-.144531.332031-.328125s-.148437-.332032-.332031-.332032zm2.644532 0c-.183594 0-.332032.148438-.332032.332032s.148438.328125.332032.328125h1.324218c.183594 0 .332032-.144531.332032-.328125s-.148438-.332032-.332032-.332032c0 0 0 0-.003906 0zm2.648437 0c-.183593 0-.332031.148438-.332031.332032s.148438.328125.332031.328125h1.320313c.183594 0 .332031-.144531.332031-.328125s-.148437-.332032-.332031-.332032zm0 0" fill="#fff" fill-opacity=".529412"/></svg>

<?xml version="1.0" encoding="UTF-8"?>
<svg xmlns="http://www.w3.org/2000/svg" xmlns:xlink="http://www.w3.org/1999/xlink" width="32px" height="32px" viewBox="0 0 32 32" version="1.1">
<defs>
<linearGradient id="linear0" gradientUnits="userSpaceOnUse" x1="254" y1="233.5" x2="254" y2="254.666672" gradientTransform="matrix(0.062506,0,0,0.062506,-0.00000381506,13.438783)">
<stop offset="0" style="stop-color:rgb(0%,0%,0%);stop-opacity:0.27451;"/>
<stop offset="1" style="stop-color:rgb(0%,0%,0%);stop-opacity:0;"/>
</linearGradient>
<radialGradient id="radial0" gradientUnits="userSpaceOnUse" cx="450.908936" cy="189.579361" fx="450.908936" fy="189.579361" r="21.166656" gradientTransform="matrix(0.00000017417,-0.0781325,-0.140638,-0.000000101539,53.453691,63.595331)">
<stop offset="0" style="stop-color:rgb(0%,0%,0%);stop-opacity:0.313726;"/>
<stop offset="0.222222" style="stop-color:rgb(0%,0%,0%);stop-opacity:0.27451;"/>
<stop offset="1" style="stop-color:rgb(0%,0%,0%);stop-opacity:0;"/>
</radialGradient>
<radialGradient id="radial1" gradientUnits="userSpaceOnUse" cx="450.908936" cy="189.579361" fx="450.908936" fy="189.579361" r="21.166656" gradientTransform="matrix(-0.00000017417,0.0781325,0.140638,0.000000101539,-21.700661,-7.527481)">
<stop offset="0" style="stop-color:rgb(0%,0%,0%);stop-opacity:0.313726;"/>
<stop offset="0.222222" style="stop-color:rgb(0%,0%,0%);stop-opacity:0.27451;"/>
<stop offset="1" style="stop-color:rgb(0%,0%,0%);stop-opacity:0;"/>
</radialGradient>
<radialGradient id="radial2" gradientUnits="userSpaceOnUse" cx="450.908936" cy="189.579361" fx="450.908936" fy="189.579361" r="21.166656" gradientTransform="matrix(-0.00000017417,-0.0781325,0.140638,-0.000000101539,-21.700661,63.595331)">
<stop offset="0" style="stop-color:rgb(0%,0%,0%);stop-opacity:0.313726;"/>
<stop offset="0.222222" style="stop-color:rgb(0%,0%,0%);stop-opacity:0.27451;"/>
<stop offset="1" style="stop-color:rgb(0%,0%,0%);stop-opacity:0;"/>
</radialGradient>
<radialGradient id="radial3" gradientUnits="userSpaceOnUse" cx="450.908936" cy="189.579361" fx="450.908936" fy="189.579361" r="21.166656" gradientTransform="matrix(0.00000017417,0.0781325,-0.140638,0.000000101539,53.453689,-7.527481)">
<stop offset="0" style="stop-color:rgb(0%,0%,0%);stop-opacity:0.313726;"/>
<stop offset="0.222222" style="stop-color:rgb(0%,0%,0%);stop-opacity:0.27451;"/>
<stop offset="1" style="stop-color:rgb(0%,0%,0%);stop-opacity:0;"/>
</radialGradient>
<linearGradient id="linear1" gradientUnits="userSpaceOnUse" x1="306.916656" y1="-25.791676" x2="305.954559" y2="-135.329163" gradientTransform="matrix(0.0753497,0,0,0.217412,-5.854013,33.641348)">
<stop offset="0" style="stop-color:rgb(36.078432%,41.960785%,75.294119%);stop-opacity:1;"/>
<stop offset="1" style="stop-color:rgb(47.450981%,52.549022%,79.607844%);stop-opacity:1;"/>
</linearGradient>
<linearGradient id="linear2" gradientUnits="userSpaceOnUse" x1="960" y1="1295.118164" x2="960" y2="255.118118" gradientTransform="matrix(0.0208475,0,0,0.0208475,-3.952361,1.244434)">
<stop offset="0" style="stop-color:rgb(25.882354%,25.882354%,25.882354%);stop-opacity:1;"/>
<stop offset="1" style="stop-color:rgb(38.039216%,38.039216%,38.039216%);stop-opacity:1;"/>
</linearGradient>
<linearGradient id="linear3" gradientUnits="userSpaceOnUse" x1="306.916656" y1="-25.791676" x2="305.954559" y2="-135.329163" gradientTransform="matrix(0.0753497,0,0,0.217412,-5.854013,33.641346)">
<stop offset="0" style="stop-color:rgb(99.215686%,99.215686%,99.215686%);stop-opacity:0.235294;"/>
<stop offset="1" style="stop-color:rgb(100%,100%,100%);stop-opacity:0.196078;"/>
</linearGradient>
<linearGradient id="linear4" gradientUnits="userSpaceOnUse" x1="301.625" y1="-84" x2="301.625" y2="-136.916672" gradientTransform="matrix(0.0787936,0,0,0.0787936,-3.118465,20.247176)">
<stop offset="0" style="stop-color:rgb(100%,65.490198%,14.901961%);stop-opacity:1;"/>
<stop offset="1" style="stop-color:rgb(100%,71.764708%,30.19608%);stop-opacity:1;"/>
</linearGradient>
<linearGradient id="linear5" gradientUnits="userSpaceOnUse" x1="960" y1="1295.118164" x2="960" y2="255.118118" gradientTransform="matrix(0.0208475,0,0,0.0208475,-3.952362,1.244435)">
<stop offset="0" style="stop-color:rgb(56.470591%,64.313728%,68.235296%);stop-opacity:1;"/>
<stop offset="1" style="stop-color:rgb(69.01961%,74.509805%,77.254903%);stop-opacity:1;"/>
</linearGradient>
</defs>
<g id="surface1">
<path style=" stroke:none;fill-rule:nonzero;fill:url(#linear0);" d="M 4.628906 28.035156 L 27.121094 28.035156 L 27.121094 29.355469 L 4.628906 29.355469 Z M 4.628906 28.035156 "/>
<path style=" stroke:none;fill-rule:nonzero;fill:url(#radial0);" d="M 27.121094 28.035156 L 29.769531 28.035156 L 29.769531 26.710938 L 27.121094 26.710938 Z M 27.121094 28.035156 "/>
<path style=" stroke:none;fill-rule:nonzero;fill:url(#radial1);" d="M 4.628906 28.035156 L 1.984375 28.035156 L 1.984375 29.355469 L 4.628906 29.355469 Z M 4.628906 28.035156 "/>
<path style=" stroke:none;fill-rule:nonzero;fill:url(#radial2);" d="M 4.628906 28.035156 L 1.984375 28.035156 L 1.984375 26.710938 L 4.628906 26.710938 Z M 4.628906 28.035156 "/>
<path style=" stroke:none;fill-rule:nonzero;fill:url(#radial3);" d="M 27.121094 28.035156 L 29.769531 28.035156 L 29.769531 29.355469 L 27.121094 29.355469 Z M 27.121094 28.035156 "/>
<path style=" stroke:none;fill-rule:nonzero;fill:url(#linear1);" d="M 3.308594 4.21875 L 28.445312 4.21875 C 29.175781 4.21875 29.769531 4.8125 29.769531 5.542969 L 29.769531 26.710938 C 29.769531 27.441406 29.175781 28.035156 28.445312 28.035156 L 3.308594 28.035156 C 2.578125 28.035156 1.984375 27.441406 1.984375 26.710938 L 1.984375 5.542969 C 1.984375 4.8125 2.578125 4.21875 3.308594 4.21875 Z M 3.308594 4.21875 "/>
<path style=" stroke:none;fill-rule:nonzero;fill:url(#linear2);" d="M 9.378906 12.40625 C 9.164062 12.410156 8.957031 12.496094 8.804688 12.648438 L 1.984375 19.46875 L 1.984375 26.710938 C 1.984375 27.445312 2.574219 28.035156 3.308594 28.035156 L 28.445312 28.035156 C 29.179688 28.035156 29.769531 27.445312 29.769531 26.710938 L 29.769531 19.402344 L 24.949219 15.117188 C 24.605469 14.8125 24.082031 14.84375 23.777344 15.191406 L 18.523438 21.195312 L 9.976562 12.648438 C 9.816406 12.492188 9.601562 12.402344 9.378906 12.40625 Z M 9.378906 12.40625 "/>
<path style=" stroke:none;fill-rule:nonzero;fill:rgb(0%,0%,0%);fill-opacity:0.235294;" d="M 3.308594 28.046875 C 2.574219 28.046875 1.984375 27.457031 1.984375 26.722656 L 1.984375 26.378906 C 1.984375 27.113281 2.574219 27.703125 3.308594 27.703125 L 28.445312 27.703125 C 29.179688 27.703125 29.769531 27.113281 29.769531 26.378906 L 29.769531 26.722656 C 29.769531 27.457031 29.179688 28.046875 28.445312 28.046875 Z M 3.308594 28.046875 "/>
<path style=" stroke:none;fill-rule:nonzero;fill:url(#linear3);" d="M 3.308594 4.21875 C 2.574219 4.21875 1.984375 4.808594 1.984375 5.542969 L 1.984375 26.710938 C 1.984375 27.445312 2.574219 28.035156 3.308594 28.035156 L 28.445312 28.035156 C 29.179688 28.035156 29.769531 27.445312 29.769531 26.710938 L 29.769531 5.542969 C 29.769531 4.808594 29.179688 4.21875 28.445312 4.21875 Z M 7.9375 8.1875 L 23.816406 8.1875 C 24.546875 8.1875 25.136719 8.777344 25.136719 9.511719 L 25.136719 22.742188 C 25.136719 23.476562 24.546875 24.066406 23.816406 24.066406 L 7.9375 24.066406 C 7.207031 24.066406 6.613281 23.476562 6.613281 22.742188 L 6.613281 9.511719 C 6.613281 8.777344 7.207031 8.1875 7.9375 8.1875 Z M 7.9375 8.1875 "/>
<path style=" stroke:none;fill-rule:nonzero;fill:rgb(100%,100%,100%);fill-opacity:0.392157;" d="M 3.308594 4.296875 C 2.574219 4.296875 1.984375 4.886719 1.984375 5.617188 L 1.984375 5.777344 C 1.984375 5.042969 2.574219 4.453125 3.308594 4.453125 L 28.445312 4.453125 C 29.179688 4.453125 29.769531 5.042969 29.769531 5.777344 L 29.769531 5.617188 C 29.769531 4.886719 29.179688 4.296875 28.445312 4.296875 Z M 3.308594 4.296875 "/>
<path style=" stroke:none;fill-rule:nonzero;fill:rgb(12.941177%,12.941177%,12.941177%);fill-opacity:1;" d="M 3.308594 4.125 C 2.523438 4.125 1.890625 4.757812 1.890625 5.542969 L 1.890625 26.710938 C 1.890625 27.496094 2.523438 28.128906 3.308594 28.128906 L 28.445312 28.128906 C 29.230469 28.128906 29.863281 27.496094 29.863281 26.710938 L 29.863281 5.542969 C 29.863281 4.757812 29.230469 4.125 28.445312 4.125 Z M 3.308594 4.3125 L 28.445312 4.3125 C 29.128906 4.3125 29.675781 4.859375 29.675781 5.542969 L 29.675781 26.710938 C 29.675781 27.394531 29.128906 27.941406 28.445312 27.941406 L 3.308594 27.941406 C 2.625 27.941406 2.078125 27.394531 2.078125 26.710938 L 2.078125 5.542969 C 2.078125 4.859375 2.625 4.3125 3.308594 4.3125 Z M 3.308594 4.3125 "/>
<path style=" stroke:none;fill-rule:nonzero;fill:url(#linear4);" d="M 20.648438 9.460938 C 21.800781 9.460938 22.730469 10.390625 22.730469 11.542969 C 22.730469 12.695312 21.800781 13.628906 20.648438 13.628906 C 19.496094 13.628906 18.5625 12.695312 18.5625 11.542969 C 18.5625 10.390625 19.496094 9.460938 20.648438 9.460938 Z M 20.648438 9.460938 "/>
<path style=" stroke:none;fill-rule:nonzero;fill:url(#linear5);" d="M 9.378906 12.40625 C 9.164062 12.410156 8.957031 12.496094 8.804688 12.648438 L 5.550781 15.902344 L 6.472656 16.988281 C 6.886719 17.402344 8.101562 17.425781 9.390625 16.570312 C 10.214844 15.75 11.210938 15.824219 11.890625 16.570312 C 12.863281 17.46875 13.742188 17.402344 14.730469 17.402344 L 9.976562 12.648438 C 9.816406 12.492188 9.601562 12.402344 9.378906 12.40625 Z M 24.386719 14.910156 C 24.164062 14.910156 23.9375 15.007812 23.777344 15.191406 L 21.839844 17.402344 L 21.898438 17.402344 C 22.042969 17.722656 22.105469 18.863281 22.730469 18.238281 C 23.800781 17.167969 23.984375 17.613281 24.398438 18.027344 C 25.027344 18.65625 25.441406 19.28125 26.066406 19.070312 C 27.109375 18.65625 27.292969 17.625 26.828125 16.789062 L 24.949219 15.117188 C 24.789062 14.972656 24.585938 14.90625 24.386719 14.910156 Z M 24.386719 14.910156 "/>
<path style="fill:none;stroke-width:3;stroke-linecap:round;stroke-linejoin:round;stroke:rgb(12.941177%,12.941177%,12.941177%);stroke-opacity:1;stroke-miterlimit:4;" d="M 126.987873 -84.012509 L 381.026114 -84.012509 C 392.712498 -84.012509 402.149097 -74.513416 402.149097 -62.827032 L 402.149097 148.840255 C 402.149097 160.526639 392.712498 170.025732 381.026114 170.025732 L 126.987873 170.025732 C 115.301489 170.025732 105.802396 160.526639 105.802396 148.840255 L 105.802396 -62.827032 C 105.802396 -74.513416 115.301489 -84.012509 126.987873 -84.012509 Z M 126.987873 -84.012509 " transform="matrix(0.062506,0,0,0.062506,0,13.438783)"/>
</g>
</svg>
